X:38
T:Kalamantinos
O:Greek
D:"Rubai" by Flook
Z:Transcribed by Lionel Gueganton
M:7/8
K:C
|: B2cd2c2  | BABA2G2 | ABcA2G2 | G2FE2E2     | 
   E2FG2A2  | ABAG2F2 | DEEEFED | D2CC2C2    :|
|: CDB,CDEG | BcAcBAG | GFAG2F2 |1 CDB,CDG,B,:|2 CDB,C2C2 |

